!!!COM: Arthur Honegger
!!!OTL: [T610_Hon-w43p9-10h6m1-h7m9]
**kern	**dynam	**kern	**dynam	**kern	**kern	**kern	**kern	**dynam	**kern	**dynam	**kern	**kern
*grp:A	*grp:A	*grp:A	*grp:A	*grp:A	*grp:B	*grp:B	*grp:A	*grp:A	*grp:A	*grp:A	*grp:A	*grp:A
*part9	*part9	*part8	*part8	*part7	*part6	*part5	*part4	*part4	*part3	*part3	*part2	*part1
*staff9	*staff9	*staff8	*staff8	*staff7	*staff6	*staff5	*staff4	*staff4	*staff3	*staff3	*staff2	*staff1
*I"Contrabass	*I"Contrabass	*I"Violoncello	*I"Violoncello	*I"Viola	*I"Violin II	*I"Violin I	*I"Trombone	*I"Trombone	*I"Trumpet [C]	*I"Trumpet [C]	*I"Oboe	*I"Flute
*I'Cb.	*	*I'Vc.	*	*I'Vla.	*I'Vln. II	*I'Vln. I	*I'Tbn.	*	*I'Tpt.	*	*I'Ob.	*I'Fl.
*clefF4	*	*clefF4	*	*clefC3	*clefG2	*clefG2	*clefF4	*	*clefG2	*	*clefG2	*clefG2
*ITrd7c12	*	*	*	*	*	*	*	*	*	*	*	*
*k[]	*	*k[]	*	*k[]	*k[]	*k[]	*k[]	*	*	*	*k[]	*k[]
*	*	*	*	*	*	*	*	*	*	*	*	*
*M3/8	*	*M3/8	*	*M3/8	*M3/8	*M3/8	*M3/8	*	*M3/8	*	*M3/8	*M3/8
=1	=1	=1	=1	=1	=1	=1	=1	=1	=1	=1	=1	=1
*	*	*	*	*	*	*	*^	*	*	*	*	*
!	!	!	!	!LO:TX:a:t=Pizz.	!LO:TX:a:t=Pizz.	!LO:TX:a:t=Pizz.	!LO:TX:a:t=I.	!	!	!LO:TX:a:t=[Sourdines]	!	!	!
4ryy	4ryy	4ryy	4ryy	8ryy	8r	8r	4.ryy	4.ryy	4ryy	4.ryy	4ryy	8%3ryy	8%3ryy
.	.	.	.	8ryy	8r	8r	.	.	.	.	.	.	.
!	!	!	!	!	!LO:TX:t=P:problem:cross-bar beaming (same throughout part)	!LO:TX:t=P:problem:cross-bar beaming (same throughout part)	!	!	!	!	!	!	!
8ryy	.	8ryy	.	8ryy	8gg#XL	8ggg#XL	.	.	.	.	.	.	.
=2	=2	=2	=2	=2	=2	=2	=2	=2	=2	=2	=2	=2	=2
8ryy	.	8ryy	.	8ryy	8dd#XJ	8ddd#XJ	4.ryy	4.ryy	.	4.ryy	.	8%3ryy	8%3ryy
!	!	!	!	!LO:TX:t=P:problem:cross-bar beaming throughout part	!	!	!	!	!	!	!	!	!
8ryy	.	8ryy	.	8ryy	8r	8r	.	.	.	.	.	.	.
8ryy	.	8ryy	.	8ryy	8g#XL	8gg#XL	.	.	.	.	.	.	.
=3	=3	=3	=3	=3	=3	=3	=3	=3	=3	=3	=3	=3	=3
8ryy	.	8ryy	.	8ryy	8r	8r	8ryy	4.ryy	.	8ryy	.	8%3ryy	8%3ryy
8ryy	.	8ryy	.	8ryy	8dd#XJ	8ddd#XJ	8rAyy	.	.	8ryy	.	.	.
8ryy	.	8ryy	.	8ryy	8r	8r	8ryy	.	.	16ryy	.	.	.
.	.	.	.	.	.	.	.	.	.	16ryy	.	.	.
=4	=4	=4	=4	=4	=4	=4	=4	=4	=4	=4	=4	=4	=4
!	!	!	!	!	!	!	!	!	!	!	!	!	!LO:TX:a:t=I.
8ryy	.	8ryy	.	8ryy	8r	8r	4.ryy	4.ryy	.	4.ryy	.	8%3ryy	4ryy
8ryy	.	8ryy	.	8ryy	8r	8r	.	.	.	.	.	.	.
8ryy	.	8ryy	.	8ryy	8gg#XL	8ggg#XL	.	.	.	.	.	.	8ryy
=5	=5	=5	=5	=5	=5	=5	=5	=5	=5	=5	=5	=5	=5
8%3ryy	.	8ryy	.	8ryy	8dd#XJ	8ddd#XJ	4.ryy	4.ryy	.	4.ryy	.	8%3ryy	4ryy
.	.	8ryy	.	8ryy	8r	8r	.	.	.	.	.	.	.
.	.	8ryy	.	8ryy	8g#XL	8gg#XL	.	.	.	.	.	.	8ryy
=6	=6	=6	=6	=6	=6	=6	=6	=6	=6	=6	=6	=6	=6
8%3ryy	.	8ryy	.	8ryy	8r	8r	4.ryy	4.ryy	.	4.ryy	.	8%3ryy	4ryy
.	.	8ryy	.	8ryy	8dd#XJ	8ddd#XJ	.	.	.	.	.	.	.
.	.	8ryy	.	8ryy	8r	8r	.	.	.	.	.	.	8ryy
=7	=7	=7	=7	=7	=7	=7	=7	=7	=7	=7	=7	=7	=7
8%3ryy	.	8ryy	.	8ryy	8gg#XL	8ggg#XL	4.ryy	4.ryy	.	4.ryy	.	8%3ryy	8ryy
.	.	8ryy	.	8ryy	8dd#XJ	8ddd#XJ	.	.	.	.	.	.	8ryy
.	.	8ryy	.	8ryy	8r	8r	.	.	.	.	.	.	8ryy
=8	=8	=8	=8	=8	=8	=8	=8	=8	=8	=8	=8	=8	=8
4ryy	.	8ryy	.	8ryy	8g#X	8gg#X	4.ryy	4.ryy	.	4.ryy	.	8%3ryy	8ryy
.	.	8ryy	.	8ryy	8r	8r	.	.	.	.	.	.	4ryy
8ryy	.	8ryy	.	8ryy	8ccc#XL	8ccc#XL	.	.	.	.	.	.	.
=9	=9	=9	=9	=9	=9	=9	=9	=9	=9	=9	=9	=9	=9
8%3ryy	.	8ryy	.	8ryy	8gg#XJ	8gg#XJ	4.ryy	4.ryy	.	4.ryy	.	8%3ryy	8ryy
.	.	8ryy	.	8ryy	8r	8r	.	.	.	.	.	.	8ryy
.	.	8ryy	.	8ryy	8cc#XL	8cc#XL	.	.	.	.	.	.	8ryy
=10	=10	=10	=10	=10	=10	=10	=10	=10	=10	=10	=10	=10	=10
8%3ryy	.	8ryy	.	8ryy	8r	8r	4.ryy	4.ryy	.	4.ryy	.	8%3ryy	4ryy
.	.	8ryy	.	8ryy	8gg#XJ	8gg#XJ	.	.	.	.	.	.	.
.	.	8ryy	.	8ryy	8r	8r	.	.	.	.	.	.	16ryy
.	.	.	.	.	.	.	.	.	.	.	.	.	16ryy
=11	=11	=11	=11	=11	=11	=11	=11	=11	=11	=11	=11	=11	=11
!	!	!	!	!	!	!	!	!	!	!	!	!LO:TX:a:t=I.	!
8%3ryy	.	8ryy	.	8ryy	8ddd#XL	8ddd#XL	4ryy	4.ryy	.	4ryy	.	4ryy	4ryy
.	.	8ryy	.	8ryy	8gg#XJ	8gg#XJ	.	.	.	.	.	.	.
.	.	8ryy	.	8ryy	8r	8r	8rAyy	.	.	8ryy	.	8ryy	8ryy
*	*	*	*	*	*	*	*v	*v	*	*	*	*	*
=12	=12	=12	=12	=12	=12	=12	=12	=12	=12	=12	=12	=12
!	!	!	!	!	!	!	!LO:TX:b:t=II.	!	!	!	!	!
4ryy	.	8ryy	.	8ryy	8ddd#X	8ddd#X	4.ryy	.	4.ryy	.	4ryy	8%3ryy
.	.	8ryy	.	8ryy	8r	8r	.	.	.	.	.	.
8ryy	.	8ryy	.	8ryy	8gg#XL	8ggg#XL	.	.	.	.	8ryy	.
=13	=13	=13	=13	=13	=13	=13	=13	=13	=13	=13	=13	=13
8%3ryy	.	8ryy	.	8ryy	8ddd#XJ	8ddd#XJ	4.ryy	.	4.ryy	.	4ryy	8%3ryy
.	.	8ryy	.	8ryy	8r	8r	.	.	.	.	.	.
.	.	8ryy	.	8ryy	8gg#XL	8gg#XL	.	.	.	.	8ryy	.
=14	=14	=14	=14	=14	=14	=14	=14	=14	=14	=14	=14	=14
8%3ryy	.	8ryy	.	8ryy	8r	8r	4.ryy	.	4.ryy	.	8ryy	8%3ryy
.	.	8ryy	.	8ryy	8ddd#XJ	8ddd#XJ	.	.	.	.	8ryy	.
.	.	8ryy	.	8ryy	8r	8r	.	.	.	.	8ryy	.
=15	=15	=15	=15	=15	=15	=15	=15	=15	=15	=15	=15	=15
8%3ryy	.	8ryy	.	8ryy	8ccc#XL	8ccc#XL	8ryy	.	8ryy	.	4ryy	8%3ryy
.	.	8ryy	.	8ryy	8gg#XJ	8gg#XJ	8ryy	.	8ryy	.	.	.
.	.	8ryy	.	8ryy	8r	8r	8ryy	.	16ryy	.	8ryy	.
.	.	.	.	.	.	.	.	.	16ryy	.	.	.
=16	=16	=16	=16	=16	=16	=16	=16	=16	=16	=16	=16	=16
4ryy	.	8ryy	.	8ryy	8ccc#X	8ccc#X	4.ryy	.	4.ryy	.	4ryy	8ryy
.	.	8ryy	.	8ryy	8r	8r	.	.	.	.	.	8ryy
8ryy	.	8ryy	.	8ryy	8ff#XL	8fff#XL	.	.	.	.	8ryy	8ryy
=17	=17	=17	=17	=17	=17	=17	=17	=17	=17	=17	=17	=17
8%3ryy	.	8ryy	.	8ryy	8ccc#XJ	8ccc#XJ	4.ryy	.	4.ryy	.	8%3ryy	8ryy
.	.	8ryy	.	8ryy	8r	8r	.	.	.	.	.	8ryy
.	.	8ryy	.	8ryy	8ff#XL	8ff#XL	.	.	.	.	.	8ryy
=18	=18	=18	=18	=18	=18	=18	=18	=18	=18	=18	=18	=18
8%3ryy	.	8ryy	.	8ryy	8r	8r	4.ryy	.	4.ryy	.	8%3ryy	8ryy
.	.	8ryy	.	8ryy	8ccc#XJ	8ccc#XJ	.	.	.	.	.	8ryy
.	.	8ryy	.	8ryy	8r	8r	.	.	.	.	.	8ryy
=19	=19	=19	=19	=19	=19	=19	=19	=19	=19	=19	=19	=19
8%3ryy	.	8ryy	.	8ryy	8ff#XL	8ff#XL	4.ryy	.	4ryy	.	8%3ryy	8ryy
.	.	8ryy	.	8ryy	8cc#XJ	8cc#XJ	.	.	.	.	.	8ryy
.	.	8ryy	.	8ryy	8r	8r	.	.	8ryy	.	.	8ryy
=20	=20	=20	=20	=20	=20	=20	=20	=20	=20	=20	=20	=20
*	*	*	*	*	*	*	*^	*	*	*	*	*
!	!	!	!	!	!	!	!LO:TX:a:t=I.	!	!	!	!	!	!
4ryy	.	8ryy	.	8ryy	8ff#X	8ff#X	4.ryy	8ryy	.	4.ryy	.	4ryy	4ryy
.	.	8ryy	.	8ryy	8r	8r	.	8ryy	.	.	.	.	.
8ryy	.	8ryy	.	8ryy	8bb	8bb	.	8ryy	.	.	.	8ryy	8ryy
*	*	*	*	*	*	*	*v	*v	*	*	*	*	*
=	=	=	=	=	=	=	=	=	=	=	=	=
*-	*-	*-	*-	*-	*-	*-	*-	*-	*-	*-	*-	*-
!!!system-decoration: [(s1,s2)][(s3,s4)][(s5,s6,s7,s8,s9)]
!!!YEM: Copyright © Natalie
!!!RDF**kern: > = above
!!!RDF**kern: < = below
